X:1
T:Partita III Sarabande
T:BWV 827
T:J. S. Bach
%%score { ( 1 3 ) | ( 2 4 ) }
L:1/8
Q:1/4=72
M:3/4
K:C
V:1 treble nm="Harp"
V:3 treble 
V:2 bass 
V:4 bass 
V:1
"^Adagio" A/A/4^G/4A/4G/4A/4G/4 F/4G/4A/ | E/4D/4E/(3F/E/D/ EE EE | %2
 cB z A/A/4^G/4 A/4G/4A/4G/4F/4G/4A/ | [Bd][Ac] z A/A/4^G/4 A/4G/4A/4G/4F/4G/4A/ | fe z e ee | %5
 e(3f/e/d/ e(3g/f/e/ f(3a/g/f/ | g6- | g(3g/f/e/ f(3f/e/d/ e(3e/d/c/ | %8
 c/e/d z c'/c'/4b/4 c'/4b/4c'/4b/4a/4b/4c'/ | f/4e/4f/(3g/f/e/ f(3a/g/f/ (3g/f/e/(3f/e/d/ | %10
 e/4d/4e/(3f/e/d/ ec'/c'/4b/4 c'/4b/4c'/4b/4a/4b/4c'/ | %11
 d/4c/4d/(3f/e/d/ (3g/f/e/(3f/e/d/ (3e/d/c/(3d/c/B/ | c3 A/A/4^G/4 A/4G/4A/4G/4F/4G/4A/ | %13
 E/4D/4E/(3F/E/D/ EE EE | cB z A/A/4^G/4 A/4G/4A/4G/4F/4G/4A/ | %15
 [Bd][Ac] z A/A/4^G/4 A/4G/4A/4G/4F/4G/4A/ | fe z e ee | e(3f/e/d/ e(3g/f/e/ f(3a/g/f/ | g6- | %19
 g(3g/f/e/ f(3f/e/d/ e(3e/d/c/ | c/e/d z c'/c'/4b/4 c'/4b/4c'/4b/4a/4b/4c'/ | %21
 f/4e/4f/(3g/f/e/ f(3a/g/f/ (3g/f/e/(3f/e/d/ | %22
 e/4d/4e/(3f/e/d/ ec'/c'/4b/4 c'/4b/4c'/4b/4a/4b/4c'/ | %23
 d/4c/4d/(3f/e/d/ (3g/f/e/(3f/e/d/ (3e/d/c/(3d/c/B/ | c3 z z2 | z2 z g fe | d^f g z z2 | %27
 z2 z f ed | (3^c/B/A/(3d/c/B/ c z z2 | z2 z (3d/e/f/ (3f/g/a/(3a/_b/c'/ | %30
 (3_b/a/b/(3c'/b/a/ b(3c/d/e/ (3e/f/g/(3g/a/b/ | (3a/g/a/(3_b/a/g/ ad e^c | d3 f (3e/d/e/(3f/e/d/ | %33
 f3 f (3e/d/e/(3f/e/d/ | ed/e/ ca/a/4^g/4 a/4g/4a/4g/4f/4g/4a/ | %35
 d(3e/d/c/ (3d/c/B/(3c/B/A/ (3B/A/^G/(3A/G/^F/ | (3^G/A/B/(3A/G/^F/ Ec B/B/4A/4B/4A/4B/4A/4 | %37
 d/4c/4d/(3c/d/e/ d(3B/c/d/ (3c/d/e/(3d/e/f/ | (3e/d/e/(3f/e/d/ ea/a/4^g/4 a/4g/4a/4g/4f/4g/4a/ | %39
 d/4c/4d/(3f/e/d/ (3e/d/c/(3d/c/B/ (3c/B/A/(3B/A/^G/ | A3 z z2 | z2 z g fe | d^f g z z2 | %43
 z2 z f ed | (3^c/B/A/(3d/c/B/ c z z2 | z2 z (3d/e/f/ (3f/g/a/(3a/_b/c'/ | %46
 (3_b/a/b/(3c'/b/a/ b(3c/d/e/ (3e/f/g/(3g/a/b/ | (3a/g/a/(3_b/a/g/ ad e^c | d3 f (3e/d/e/(3f/e/d/ | %49
 f3 f (3e/d/e/(3f/e/d/ | ed/e/ ca/a/4^g/4 a/4g/4a/4g/4f/4g/4a/ | %51
 d(3e/d/c/ (3d/c/B/(3c/B/A/ (3B/A/^G/(3A/G/^F/ | (3^G/A/B/(3A/G/^F/ Ec B/B/4A/4B/4A/4B/4A/4 | %53
 d/4c/4d/(3c/d/e/ d(3B/c/d/ (3c/d/e/(3d/e/f/ | (3e/d/e/(3f/e/d/ ea/a/4^g/4 a/4g/4a/4g/4f/4g/4a/ | %55
 d/4c/4d/(3f/e/d/ (3e/d/c/(3d/c/B/ (3c/B/A/(3B/A/^G/ | !fermata!A3 z3 |] %57
V:2
 z z2 | z2 z A,/A,/4^G,/4 A,/4G,/4A,/4G,/4F,/4G,/4A,/ | E,(3F,/E,/D,/ E,E,, E,,E,, | %3
 E,(3F,/E,/D,/ E,E,, E,,E,, | E,(3F,/E,/D,/ E,[K:treble]E ^F^G | AA, A,A AA, | %6
[K:bass] EE, E,E EE, | F,E, D,G, CF, | G,G,, G,,G, G,G,, | G,G,, G,,G, G,G,, | %10
 G,G,, G,,G, (3F,/E,/F,/(3G,/F,/E,/ | F,D, E,C, G,G,, | C,G,, C,, z3 | %13
 z2 z A,/A,/4^G,/4 A,/4G,/4A,/4G,/4F,/4G,/4A,/ | E,(3F,/E,/D,/ E,E,, E,,E,, | %15
 E,(3F,/E,/D,/ E,E,, E,,E,, | E,(3F,/E,/D,/ E,E ^F^G | AA, A,A AA, | EE, E,E EE, | F,E, D,G, CF, | %20
 G,G,, G,,G, G,G,, | G,G,, G,,G, G,G,, | G,G,, G,,G, (3F,/E,/F,/(3G,/F,/E,/ | F,D, E,C, G,G,, | %24
 C,G,, C,, C/C/4B,/4 C/4B,/4C/4B,/4A,/4B,/4C/ | G,(3A,/G,/^F,/ G,G,, G,,G,, | %26
 G,,2 z D/D/4^C/4 D/4C/4D/4C/4B,/4C/4D/ | A,(3B,/A,/^G,/ A,A,, A,,A,, | %28
 A,,2 z A,/A,/4G,/4 A,/4G,/4A,/4G,/4F,/4G,/4A,/ | %29
 D,(3E,/D,/^C,/ D, D/D/4^C/4 D/4C/4D/4C/4B,/4C/4D/ | %30
 G,(3A,/G,/F,/ G, C/C/4_B,/4 C/4B,/4C/4B,/4A,/4B,/4C/ | F,(3G,/F,/E,/ F,_B, G,A, | %32
 D,A,, D,,(3A,/G,/F,/ (3F,/E,/D,/(3D,/C,/B,,/ | %33
 (3B,,/A,,/G,,/(3G,,/A,,/B,,/ (3B,,/C,/D,/(3D,/E,/F,/ G,G,, | %34
 (3C,/D,/E,/(3E,/F,/G,/ (3G,/A,/B,/C B,A, | B,A, B,C DC | E,E,, E,,E, E,E,, | E,E,, E,,E, E,E,, | %38
 D,D,, D,,C (3B,/A,/B,/(3C/B,/A,/ | A,E, C,A,, E,E,, | %40
 A,,E, A, C/C/4B,/4 C/4B,/4C/4B,/4A,/4B,/4C/ | G,(3A,/G,/^F,/ G,G,, G,,G,, | %42
 G,,2 z D/D/4^C/4 D/4C/4D/4C/4B,/4C/4D/ | A,(3B,/A,/^G,/ A,A,, A,,A,, | %44
 A,,2 z A,/A,/4G,/4 A,/4G,/4A,/4G,/4F,/4G,/4A,/ | %45
 D,(3E,/D,/^C,/ D, D/D/4^C/4 D/4C/4D/4C/4B,/4C/4D/ | %46
 G,(3A,/G,/F,/ G, C/C/4_B,/4 C/4B,/4C/4B,/4A,/4B,/4C/ | F,(3G,/F,/E,/ F,_B, G,A, | %48
 D,A,, D,,(3A,/G,/F,/ (3F,/E,/D,/(3D,/C,/B,,/ | %49
 (3B,,/A,,/G,,/(3G,,/A,,/B,,/ (3B,,/C,/D,/(3D,/E,/F,/ G,G,, | %50
 (3C,/D,/E,/(3E,/F,/G,/ (3G,/A,/B,/C B,A, | B,A, B,C DC | E,E,, E,,E, E,E,, | E,E,, E,,E, E,E,, | %54
 D,D,, D,,C (3B,/A,/B,/(3C/B,/A,/ | A,E, C,A,, E,E,, | A,,E, !fermata!A, z3 |] %57
V:3
 x3 | z2 z C B,C | A^G z C B,C | x3 C B,C | A^G z G AB | c6- | c(3d/c/B/ c(3e/d/c/ c/g/_B | %7
 A2 z B c2 | x3 e de | B2 z2 z2 | x3 e de | B2 z A GF | E3 z3 | z2 z C B,C | A^G z C B,C | %15
 x3 C B,C | A^G z G AB | c6- | c(3d/c/B/ c(3e/d/c/ c/g/_B | A2 z B c2 | x3 e de | B2 z2 z2 | %22
 x3 e de | B2 z A GF | E3 z z2 | z2 z (3e/d/c/ (3d/c/B/(3c/B/A/ | (3B/A/G/(3c/B/A/ B z z2 | %27
 z2 z A GF | E^G A(3A/B/^c/ (3c/d/e/(3e/f/g/ | (3f/e/f/(3g/f/e/ f4- | f2 e4- | e2 dF GE | F3 d cB | %33
 d3 d cB | c2 z[I:staff +1] E DC | x6 | B,[I:staff -1] z z A ^GA | B2 z ^G AB | ^G2 z e de | %39
 B2 z F ED | C3 z z2 | z2 z (3e/d/c/ (3d/c/B/(3c/B/A/ | (3B/A/G/(3c/B/A/ B z z2 | z2 z A GF | %44
 E^G A(3A/B/^c/ (3c/d/e/(3e/f/g/ | (3f/e/f/(3g/f/e/ f4- | f2 e4- | e2 dF GE | F3 d cB | d3 d cB | %50
 c2 z[I:staff +1] E DC | x6 | B,[I:staff -1] z z A ^GA | B2 z ^G AB | ^G2 z e de | B2 z F ED | %56
 !fermata!C3 x3 |] %57
V:4
 x3 | x6 | x6 | x6 | x3[K:treble] x3 | x6 |[K:bass] x6 | x6 | x6 | x6 | x6 | x6 | x6 | x6 | x6 | %15
 x6 | x6 | x6 | x6 | x6 | x6 | x6 | x6 | x6 | x6 | x6 | x6 | x6 | x6 | x6 | x6 | x6 | x6 | x6 | %34
 x6 | ^G,^F, G,A, =F,D, | x6 | x6 | x6 | x6 | A,,3 z z2 | x6 | x6 | x6 | x6 | x6 | x6 | x6 | x6 | %49
 x6 | x6 | ^G,^F, G,A, =F,D, | x6 | x6 | x6 | x6 | !fermata!A,,3 x3 |] %57

